images/watering_place.svg

<?xml version="1.0" encoding="UTF-8" standalone="no"?>
<svg xmlns:dc="http://purl.org/dc/elements/1.1/" xmlns:cc="http://creativecommons.org/ns#" xmlns:rdf="http://www.w3.org/1999/02/22-rdf-syntax-ns#" xmlns:svg="http://www.w3.org/2000/svg" xmlns="http://www.w3.org/2000/svg" xmlns:sodipodi="http://sodipodi.sourceforge.net/DTD/sodipodi-0.dtd" xmlns:inkscape="http://www.inkscape.org/namespaces/inkscape" version="1.1" width="14" height="14" viewBox="0 0 14 14" id="svg9443" sodipodi:docname="watering_place.svg" inkscape:version="1.0.1 (3bc2e813f5, 2020-09-07)">
  <metadata id="metadata9449">
    <rdf:RDF>
      <cc:Work rdf:about="">
        <dc:format>image/svg+xml</dc:format>
        <dc:type rdf:resource="http://purl.org/dc/dcmitype/StillImage" />
        <dc:title />
      </cc:Work>
    </rdf:RDF>
  </metadata>
  <defs id="defs9447" />
  <sodipodi:namedview pagecolor="#ffffff" bordercolor="#666666" borderopacity="1" objecttolerance="10" gridtolerance="10" guidetolerance="10" inkscape:pageopacity="0" inkscape:pageshadow="2" inkscape:window-width="1847" inkscape:window-height="1056" id="namedview9445" showgrid="true" inkscape:pagecheckerboard="true" inkscape:zoom="32" inkscape:cx="11.283951" inkscape:cy="6.4129472" inkscape:window-x="0" inkscape:window-y="0" inkscape:window-maximized="1" inkscape:current-layer="svg9443" inkscape:document-rotation="0">
    <inkscape:grid type="xygrid" id="grid9994" units="px" spacingx="1" spacingy="1" />
  </sodipodi:namedview>
  <path sodipodi:nodetypes="cccccccccccccccccccccc" inkscape:connector-curvature="0" id="path11258" d="M 7.9265521,3.4958948 L 0.3284988,6.7414943 L 2.7008942,11.503597 L 5.1107813,11.502031 L 11.379883,8.3642578 L 13.785954,3.4986722 Z M 8.1035156,4.5 H 10.882812 L 6.8828125,6.5 H 3.4355469 Z M 11.882812,5.1171875 L 10.626953,7.6269531 L 6.1171875,9.8828125 L 7.3730469,7.3730469 Z M 1.8085938,7.5 H 6.1914062 L 4.6914062,10.5 H 3.3085938 Z" style="color:#000000;font-style:normal;font-variant:normal;font-weight:normal;font-stretch:normal;font-size:medium;line-height:normal;font-family:sans-serif;font-variant-ligatures:normal;font-variant-position:normal;font-variant-caps:normal;font-variant-numeric:normal;font-variant-alternates:normal;font-feature-settings:normal;text-indent:0;text-align:start;text-decoration:none;text-decoration-line:none;text-decoration-style:solid;text-decoration-color:#000000;letter-spacing:normal;word-spacing:normal;text-transform:none;writing-mode:lr-tb;direction:ltr;text-orientation:mixed;dominant-baseline:auto;baseline-shift:baseline;text-anchor:start;white-space:normal;shape-padding:0;clip-rule:nonzero;display:inline;overflow:visible;visibility:visible;opacity:0.5;isolation:auto;mix-blend-mode:normal;color-interpolation:sRGB;color-interpolation-filters:linearRGB;solid-color:#000000;solid-opacity:1;vector-effect:none;fill:none;fill-opacity:1;fill-rule:evenodd;stroke:#ffffff;stroke-width:3;stroke-linecap:round;stroke-linejoin:round;stroke-miterlimit:4;stroke-dasharray:none;stroke-dashoffset:0;stroke-opacity:1;color-rendering:auto;image-rendering:auto;shape-rendering:auto;text-rendering:auto;enable-background:accumulate" />
  <rect width="14" height="14" x="0" y="0" id="canvas" style="fill:none;stroke:none;visibility:hidden" />
  <path style="color:#000000;font-style:normal;font-variant:normal;font-weight:normal;font-stretch:normal;font-size:medium;line-height:normal;font-family:sans-serif;font-variant-ligatures:normal;font-variant-position:normal;font-variant-caps:normal;font-variant-numeric:normal;font-variant-alternates:normal;font-feature-settings:normal;text-indent:0;text-align:start;text-decoration:none;text-decoration-line:none;text-decoration-style:solid;text-decoration-color:#000000;letter-spacing:normal;word-spacing:normal;text-transform:none;writing-mode:lr-tb;direction:ltr;text-orientation:mixed;dominant-baseline:auto;baseline-shift:baseline;text-anchor:start;white-space:normal;shape-padding:0;clip-rule:nonzero;display:inline;overflow:visible;visibility:visible;opacity:1;isolation:auto;mix-blend-mode:normal;color-interpolation:sRGB;color-interpolation-filters:linearRGB;solid-color:#000000;solid-opacity:1;vector-effect:none;fill:#0064ff;fill-opacity:1;fill-rule:evenodd;stroke:none;stroke-width:1px;stroke-linecap:butt;stroke-linejoin:bevel;stroke-miterlimit:4;stroke-dasharray:none;stroke-dashoffset:0;stroke-opacity:1;color-rendering:auto;image-rendering:auto;shape-rendering:auto;text-rendering:auto;enable-background:accumulate" d="M 7.9265521,3.4958948 L 0.3284988,6.7414943 L 2.7008942,11.503597 L 5.1107813,11.502031 L 11.379883,8.3642578 L 13.785954,3.4986722 Z M 8.1035156,4.5 H 10.882812 L 6.8828125,6.5 H 3.4355469 Z M 11.882812,5.1171875 L 10.626953,7.6269531 L 6.1171875,9.8828125 L 7.3730469,7.3730469 Z M 1.8085938,7.5 H 6.1914062 L 4.6914062,10.5 H 3.3085938 Z" id="path10017" inkscape:connector-curvature="0" sodipodi:nodetypes="cccccccccccccccccccccc" />
</svg>

<svg xmlns="http://www.w3.org/2000/svg" width="14" height="14">
    <path d="M7.927 3.496L.328 6.74l2.373 4.763 2.41-.002 6.269-3.138L13.786 3.5zM8.104 4.5h2.779l-4 2H3.436zm3.779.617l-1.256 2.51-4.51 2.256 1.256-2.51zM1.809 7.5H6.19l-1.5 3H3.31z" color="#000" opacity=".5" fill="none" stroke="#fff" stroke-width="3" stroke-linecap="round" stroke-linejoin="round"/>
    <path d="M7.927 3.496L.328 6.74l2.373 4.763 2.41-.002 6.269-3.138L13.786 3.5zM8.104 4.5h2.779l-4 2H3.436zm3.779.617l-1.256 2.51-4.51 2.256 1.256-2.51zM1.809 7.5H6.19l-1.5 3H3.31z" color="#000" fill="#0064ff" fill-rule="evenodd"/>
</svg>
